src/misc/controls/License/images/by-nc.svg

<?xml version="1.0" encoding="UTF-8" standalone="no"?>
<!-- Created with Inkscape (http://www.inkscape.org/) -->
<svg
   xmlns:dc="http://purl.org/dc/elements/1.1/"
   xmlns:cc="http://web.resource.org/cc/"
   xmlns:rdf="http://www.w3.org/1999/02/22-rdf-syntax-ns#"
   xmlns:svg="http://www.w3.org/2000/svg"
   xmlns="http://www.w3.org/2000/svg"
   xmlns:sodipodi="http://sodipodi.sourceforge.net/DTD/sodipodi-0.dtd"
   xmlns:inkscape="http://www.inkscape.org/namespaces/inkscape"
   width="120"
   height="42"
   id="svg2759"
   sodipodi:version="0.32"
   inkscape:version="0.45+devel"
   version="1.0"
   sodipodi:docname="by-nc.svg"
   inkscape:output_extension="org.inkscape.output.svg.inkscape">
  <defs
     id="defs2761" />
  <sodipodi:namedview
     id="base"
     pagecolor="#ffffff"
     bordercolor="#8b8b8b"
     borderopacity="1"
     gridtolerance="10000"
     guidetolerance="10"
     objecttolerance="10"
     inkscape:pageopacity="0.0"
     inkscape:pageshadow="2"
     inkscape:zoom="1"
     inkscape:cx="179"
     inkscape:cy="89.569904"
     inkscape:document-units="px"
     inkscape:current-layer="layer1"
     width="120px"
     height="42px"
     inkscape:showpageshadow="false"
     inkscape:window-width="1198"
     inkscape:window-height="624"
     inkscape:window-x="488"
     inkscape:window-y="401" />
  <metadata
     id="metadata2764">
    <rdf:RDF>
      <cc:Work
         rdf:about="">
        <dc:format>image/svg+xml</dc:format>
        <dc:type
           rdf:resource="http://purl.org/dc/dcmitype/StillImage" />
      </cc:Work>
    </rdf:RDF>
  </metadata>
  <g
     inkscape:label="Layer 1"
     inkscape:groupmode="layer"
     id="layer1">
    <g
       transform="matrix(0.9937808,0,0,0.9936927,-177.69414,-148.87729)"
       id="g325"
       inkscape:export-filename="/mnt/hgfs/Bov/Documents/Work/2007/cc/identity/srr buttons/big/by-nc.png"
       inkscape:export-xdpi="300.23013"
       inkscape:export-ydpi="300.23013">
	<path
   id="path3817_3_"
   nodetypes="ccccccc"
   d="M 182.23535,150.26416 L 296.29931,150.4668 C 297.89306,150.4668 299.31689,150.23047 299.31689,153.64698 L 299.17724,191.21387 L 179.35693,191.21387 L 179.35693,153.50782 C 179.35693,151.82275 179.52002,150.26416 182.23535,150.26416 z"
   style="fill:#aab2ab" />

	<g
   id="g5908_3_"
   transform="matrix(0.872921,0,0,0.872921,50.12536,143.2144)">
		
			<path
   id="path5906_3_"
   cx="296.35416"
   ry="22.939548"
   cy="264.3577"
   type="arc"
   rx="22.939548"
   d="M 187.20946,30.09433 C 187.21504,38.77457 180.1816,45.81586 171.50138,45.82144 C 162.82116,45.82648 155.77932,38.79358 155.77428,30.11337 C 155.77428,30.10666 155.77428,30.10104 155.77428,30.09433 C 155.76924,21.41357 162.80213,14.37228 171.48236,14.36725 C 180.16368,14.36221 187.20442,21.39511 187.20946,30.07532 C 187.20946,30.08148 187.20946,30.08762 187.20946,30.09433 z"
   style="fill:#ffffff" />

		<g
   id="g5706_3_"
   transform="translate(-289.6157,99.0653)">
			<path
   id="path5708_3_"
   d="M 473.88458,-81.77313 C 477.36999,-78.28775 479.11297,-74.01977 479.11297,-68.97098 C 479.11297,-63.92157 477.40014,-59.69895 473.9746,-56.30304 C 470.33929,-52.72702 466.04284,-50.93927 461.08517,-50.93927 C 456.18737,-50.93927 451.9653,-52.71191 448.42004,-56.25885 C 444.87423,-59.80411 443.10162,-64.04184 443.10162,-68.97098 C 443.10162,-73.89954 444.87423,-78.16693 448.42004,-81.77313 C 451.87524,-85.26022 456.09732,-87.00265 461.08517,-87.00265 C 466.13342,-87.00266 470.39917,-85.26022 473.88458,-81.77313 z M 450.7666,-79.42883 C 447.81982,-76.45245 446.34704,-72.96539 446.34704,-68.96649 C 446.34704,-64.96814 447.80529,-61.51126 450.72125,-58.5953 C 453.63781,-55.67935 457.10977,-54.22106 461.1383,-54.22106 C 465.16686,-54.22106 468.66851,-55.69332 471.64489,-58.64004 C 474.47076,-61.37591 475.88427,-64.8171 475.88427,-68.96649 C 475.88427,-73.08453 474.44781,-76.57944 471.57659,-79.45065 C 468.70598,-82.32132 465.22674,-83.7572 461.1383,-83.7572 C 457.04993,-83.7572 453.59192,-82.31406 450.7666,-79.42883 z M 458.52106,-70.72513 C 458.07077,-71.70737 457.39673,-72.19794 456.49784,-72.19794 C 454.9087,-72.19794 454.11439,-71.12787 454.11439,-68.98941 C 454.11439,-66.84985 454.9087,-65.78033 456.49784,-65.78033 C 457.54719,-65.78033 458.29676,-66.30111 458.74647,-67.34487 L 460.94926,-66.1719 C 459.89933,-64.30642 458.32417,-63.37341 456.22377,-63.37341 C 454.60384,-63.37341 453.30611,-63.87011 452.33168,-64.86297 C 451.35561,-65.85641 450.86897,-67.22573 450.86897,-68.97097 C 450.86897,-70.68597 451.37126,-72.04803 452.37645,-73.05599 C 453.38161,-74.06453 454.6335,-74.5685 456.13426,-74.5685 C 458.35438,-74.5685 459.9441,-73.69423 460.90507,-71.94622 L 458.52106,-70.72513 z M 468.8844,-70.72513 C 468.43353,-71.70737 467.77295,-72.19794 466.90204,-72.19794 C 465.28095,-72.19794 464.46991,-71.12787 464.46991,-68.98941 C 464.46991,-66.84985 465.28095,-65.78033 466.90204,-65.78033 C 467.95307,-65.78033 468.68921,-66.30111 469.10925,-67.34487 L 471.36126,-66.1719 C 470.31304,-64.30642 468.74011,-63.37341 466.64361,-63.37341 C 465.02587,-63.37341 463.73095,-63.87011 462.75714,-64.86297 C 461.78497,-65.85641 461.29773,-67.22573 461.29773,-68.97097 C 461.29773,-70.68597 461.79224,-72.04803 462.78064,-73.05599 C 463.76843,-74.06453 465.02588,-74.5685 466.55408,-74.5685 C 468.77027,-74.5685 470.35779,-73.69423 471.31543,-71.94622 L 468.8844,-70.72513 z" />

		</g>

	</g>

	<path
   d="M 297.29639,149.82227 L 181.06739,149.82227 C 179.82081,149.82227 178.80616,150.83594 178.80616,152.08252 L 178.80616,191.57861 C 178.80616,191.86035 179.03516,192.08886 179.3169,192.08886 L 299.04639,192.08886 C 299.32813,192.08886 299.55713,191.86034 299.55713,191.57861 L 299.55713,152.08252 C 299.55713,150.83594 298.54297,149.82227 297.29639,149.82227 z M 181.06738,150.84277 L 297.29638,150.84277 C 297.97997,150.84277 298.53564,151.39892 298.53564,152.08252 C 298.53564,152.08252 298.53564,167.96777 298.53564,179.46387 L 215.46191,179.46387 C 212.41699,184.96973 206.55078,188.70752 199.81836,188.70752 C 193.08301,188.70752 187.21826,184.97266 184.17481,179.46387 L 179.82764,179.46387 C 179.82764,167.96778 179.82764,152.08252 179.82764,152.08252 C 179.82764,151.39893 180.38379,150.84277 181.06738,150.84277 z"
   id="path332" />

	<g
   enable-background="new    "
   id="g334">
		<path
   d="M 239.17822,182.77734 C 239.49609,182.77734 239.78564,182.80566 240.04736,182.86132 C 240.30908,182.91698 240.53369,183.00878 240.72119,183.13671 C 240.90771,183.26366 241.05322,183.43359 241.15576,183.64452 C 241.2583,183.85643 241.31006,184.11718 241.31006,184.4287 C 241.31006,184.76464 241.23389,185.04393 241.08057,185.26757 C 240.92823,185.49218 240.70166,185.6748 240.40284,185.81835 C 240.81495,185.93651 241.12257,186.14355 241.32569,186.43944 C 241.52881,186.73533 241.63038,187.09178 241.63038,187.50878 C 241.63038,187.84472 241.56495,188.13573 241.43409,188.38183 C 241.30323,188.62695 241.12647,188.82812 240.90577,188.98339 C 240.68409,189.13964 240.43116,189.25487 240.14796,189.32909 C 239.86378,189.40429 239.57276,189.44139 239.27296,189.44139 L 236.03663,189.44139 L 236.03663,182.77733 L 239.17822,182.77733 L 239.17822,182.77734 z M 238.99121,185.47266 C 239.25244,185.47266 239.46777,185.41016 239.63623,185.28614 C 239.8042,185.16212 239.88818,184.96094 239.88818,184.68165 C 239.88818,184.52638 239.85986,184.39845 239.8042,184.29981 C 239.74756,184.2002 239.67334,184.12305 239.57959,184.06641 C 239.48633,184.01075 239.37891,183.97168 239.25732,183.9502 C 239.13573,183.92872 239.00976,183.91797 238.8789,183.91797 L 237.50536,183.91797 L 237.50536,185.47266 L 238.99121,185.47266 z M 239.07666,188.30078 C 239.22021,188.30078 239.35693,188.28711 239.48828,188.25879 C 239.61865,188.23047 239.73486,188.18359 239.83447,188.11914 C 239.93408,188.05371 240.01318,187.96484 240.07275,187.85254 C 240.13232,187.74121 240.16162,187.59766 240.16162,187.42383 C 240.16162,187.08203 240.06494,186.83789 239.87158,186.69141 C 239.67822,186.5459 239.42285,186.47266 239.10498,186.47266 L 237.50537,186.47266 L 237.50537,188.30078 L 239.07666,188.30078 L 239.07666,188.30078 z"
   id="path336"
   style="fill:#ffffff" />

		<path
   d="M 241.88916,182.77734 L 243.53271,182.77734 L 245.09326,185.40918 L 246.64404,182.77734 L 248.27783,182.77734 L 245.8042,186.88379 L 245.8042,189.44141 L 244.33545,189.44141 L 244.33545,186.84668 L 241.88916,182.77734 z"
   id="path338"
   style="fill:#ffffff" />

	</g>

	<g
   enable-background="new    "
   id="g340">
		<path
   d="M 265.78076,182.77734 L 268.56494,187.24804 L 268.58056,187.24804 L 268.58056,182.77734 L 269.95556,182.77734 L 269.95556,189.4414 L 268.48974,189.4414 L 265.7163,184.97949 L 265.69775,184.97949 L 265.69775,189.4414 L 264.32275,189.4414 L 264.32275,182.77734 L 265.78076,182.77734 z"
   id="path342"
   style="fill:#ffffff" />

		<path
   d="M 275.51904,184.55273 C 275.43213,184.41211 275.32275,184.28906 275.19189,184.18359 C 275.06103,184.07812 274.91357,183.99511 274.74853,183.93652 C 274.58349,183.87695 274.41064,183.84765 274.23095,183.84765 C 273.90087,183.84765 273.6206,183.91113 273.39013,184.03906 C 273.15966,184.16601 272.97314,184.33691 272.83056,184.55176 C 272.68701,184.7666 272.58251,185.01074 272.51708,185.28418 C 272.45165,185.55762 272.41942,185.84082 272.41942,186.13281 C 272.41942,186.41308 272.45165,186.68554 272.51708,186.94922 C 272.58251,187.21387 272.687,187.45215 272.83056,187.66309 C 272.97314,187.875 273.15966,188.04395 273.39013,188.17188 C 273.6206,188.29981 273.90087,188.36329 274.23095,188.36329 C 274.67822,188.36329 275.0288,188.22657 275.28075,187.95216 C 275.5327,187.67872 275.687,187.31739 275.74266,186.86915 L 277.16161,186.86915 C 277.1245,187.28614 277.02782,187.6631 276.87255,187.99903 C 276.71728,188.33594 276.51122,188.62208 276.25634,188.85938 C 276.00146,189.09668 275.70263,189.27735 275.35986,189.40235 C 275.01806,189.52735 274.64111,189.58985 274.23095,189.58985 C 273.72021,189.58985 273.26122,189.50098 272.85302,189.32325 C 272.44579,189.14649 272.10107,188.90137 271.82079,188.59083 C 271.53954,188.27931 271.3247,187.9131 271.17528,187.49317 C 271.02587,187.07227 270.95067,186.62012 270.95067,186.13379 C 270.95067,185.63574 271.02587,185.17383 271.17528,184.74707 C 271.32469,184.32031 271.53954,183.94824 271.82079,183.63086 C 272.10106,183.31348 272.44579,183.06445 272.85302,182.88379 C 273.26122,182.70313 273.72021,182.61328 274.23095,182.61328 C 274.59814,182.61328 274.94482,182.66601 275.27197,182.77246 C 275.59814,182.87793 275.89111,183.03223 276.14892,183.23535 C 276.40771,183.4375 276.6206,183.68847 276.78857,183.9873 C 276.95654,184.28613 277.06201,184.6289 277.10595,185.01464 L 275.687,185.01464 C 275.6626,184.84668 275.60596,184.69238 275.51904,184.55273 z"
   id="path344"
   style="fill:#ffffff" />

	</g>

	<g
   id="g6379_1_"
   transform="matrix(1.146822,0,0,1.146822,457.9375,166.153)">
		
			<path
   id="path6381_1_"
   cx="475.97119"
   ry="29.209877"
   cy="252.08646"
   type="arc"
   rx="29.209877"
   d="M -154.14499,-1.09436 C -154.14157,3.73257 -158.051,7.64752 -162.87836,7.65134 C -167.70488,7.65433 -171.62026,3.74448 -171.62366,-1.0816 C -171.62366,-1.0867 -171.62366,-1.09054 -171.62366,-1.09436 C -171.62706,-5.92175 -167.71765,-9.8367 -162.89115,-9.84051 C -158.06376,-9.8435 -154.14838,-5.93365 -154.145,-1.10757 C -154.14499,-1.1033 -154.14499,-1.09863 -154.14499,-1.09436 z"
   style="fill:#ffffff" />

		<path
   id="path6383_1_"
   d="M -162.89709,-11.26941 C -160.04528,-11.26941 -157.63372,-10.28589 -155.66412,-8.31925 C -153.69452,-6.35178 -152.70929,-3.94321 -152.70929,-1.09437 C -152.70929,1.75445 -153.67749,4.13704 -155.61304,6.05385 C -157.66779,8.07198 -160.09552,9.08022 -162.8971,9.08022 C -165.66544,9.08022 -168.0506,8.07967 -170.05428,6.07854 C -172.05794,4.07827 -173.05935,1.68672 -173.05935,-1.09437 C -173.05935,-3.87593 -172.05795,-6.28449 -170.05428,-8.31925 C -168.1017,-10.28589 -165.71568,-11.26941 -162.89709,-11.26941 z M -170.77042,-3.82825 C -171.07357,-2.96945 -171.22513,-2.05832 -171.22513,-1.09436 C -171.22513,1.16092 -170.40254,3.11054 -168.75568,4.7561 C -167.1088,6.40045 -165.14771,7.22345 -162.87156,7.22345 C -160.59623,7.22345 -158.61897,6.39276 -156.93803,4.73013 C -156.37516,4.18686 -155.91108,3.59335 -155.54747,2.95044 L -159.38365,1.24268 C -159.64339,2.53318 -160.79295,3.40473 -162.18352,3.5069 L -162.18352,5.07587 L -163.35182,5.07587 L -163.35182,3.5069 C -164.49374,3.49414 -165.59733,3.02707 -166.44035,2.28879 L -165.03958,0.87567 C -164.3643,1.51089 -163.68904,1.79617 -162.76768,1.79617 C -162.17073,1.79617 -161.5091,1.56241 -161.5091,0.78454 C -161.5091,0.50906 -161.6164,0.31747 -161.78412,0.17355 L -162.75403,-0.25901 L -163.96237,-0.79633 C -164.55929,-1.06287 -165.06511,-1.28727 -165.57347,-1.51377 L -170.77042,-3.82825 z M -162.87155,-9.43817 C -165.18092,-9.43817 -167.1335,-8.62451 -168.72928,-6.99597 C -169.16441,-6.5574 -169.54164,-6.0993 -169.86353,-5.62158 L -165.97286,-3.88955 C -165.62201,-4.96887 -164.59676,-5.62371 -163.35181,-5.69607 L -163.35181,-7.26504 L -162.18351,-7.26504 L -162.18351,-5.69607 C -161.37882,-5.65734 -160.49662,-5.43679 -159.62721,-4.76321 L -160.96412,-3.38885 C -161.45716,-3.7384 -162.07963,-3.98492 -162.70295,-3.98492 C -163.20875,-3.98492 -163.92236,-3.82992 -163.92236,-3.19513 C -163.92236,-3.09763 -163.89085,-3.01245 -163.83123,-2.93668 L -162.5301,-2.35764 L -161.64961,-1.96506 C -161.08674,-1.71344 -160.54857,-1.47501 -160.01552,-1.23743 L -154.80239,1.08343 C -154.62954,0.40093 -154.54354,-0.32544 -154.54354,-1.09437 C -154.54354,-3.41865 -155.35845,-5.38487 -156.9883,-6.99598 C -158.60193,-8.62451 -160.56302,-9.43817 -162.87155,-9.43817 z" />

	</g>

	<g
   id="g349">
		<circle
   cx="242.56226"
   cy="165.13574"
   r="10.8064"
   id="circle351"
   sodipodi:cx="242.56226"
   sodipodi:cy="165.13574"
   sodipodi:rx="10.8064"
   sodipodi:ry="10.8064"
   style="fill:#ffffff" />

		<g
   id="g353">
			<path
   d="M 245.68994,162.00928 C 245.68994,161.59278 245.35205,161.25537 244.93603,161.25537 L 240.16357,161.25537 C 239.74755,161.25537 239.40966,161.59277 239.40966,162.00928 L 239.40966,166.78223 L 240.74071,166.78223 L 240.74071,172.43409 L 244.3579,172.43409 L 244.3579,166.78223 L 245.68993,166.78223 L 245.68993,162.00928 L 245.68994,162.00928 z"
   id="path355" />

			<circle
   cx="242.5498"
   cy="158.99463"
   r="1.63232"
   id="circle357"
   sodipodi:cx="242.5498"
   sodipodi:cy="158.99463"
   sodipodi:rx="1.63232"
   sodipodi:ry="1.63232" />

		</g>

		<path
   clip-rule="evenodd"
   d="M 242.53467,153.22949 C 239.30322,153.22949 236.56641,154.35693 234.32715,156.61328 C 232.0293,158.94678 230.88086,161.70898 230.88086,164.89795 C 230.88086,168.08692 232.0293,170.82959 234.32715,173.12451 C 236.625,175.41894 239.36133,176.5664 242.53467,176.5664 C 245.74756,176.5664 248.53272,175.41015 250.88819,173.09521 C 253.10889,170.89794 254.21827,168.16552 254.21827,164.89794 C 254.21827,161.63036 253.08936,158.86913 250.83057,156.61327 C 248.57178,154.35693 245.80615,153.22949 242.53467,153.22949 z M 242.56396,155.3291 C 245.2124,155.3291 247.46142,156.26318 249.31103,158.12988 C 251.18115,159.97754 252.11572,162.2334 252.11572,164.89795 C 252.11572,167.58154 251.20068,169.80859 249.36963,171.57813 C 247.4419,173.48438 245.17334,174.43702 242.56397,174.43702 C 239.9546,174.43702 237.70557,173.49366 235.81739,171.60743 C 233.92774,169.72071 232.98389,167.48438 232.98389,164.89796 C 232.98389,162.31105 233.93799,160.05519 235.84619,158.12989 C 237.67676,156.26318 239.9165,155.3291 242.56396,155.3291 z"
   id="path359"
   style="fill-rule:evenodd" />

	</g>

</g>
  </g>
</svg>

<svg xmlns="http://www.w3.org/2000/svg" width="120" height="42" version="1.0"><path d="m182.235 150.264 114.064.203c1.594 0 3.018-.237 3.018 3.18l-.14 37.567h-119.82v-37.706c0-1.685.163-3.244 2.878-3.244z" style="fill:#aab2ab" transform="matrix(.99378 0 0 .9937 -177.694 -148.877)"/><path d="M187.21 30.094c.005 8.68-7.028 15.722-15.709 15.727-8.68.005-15.722-7.027-15.727-15.708v-.019c-.005-8.68 7.028-15.722 15.708-15.727 8.682-.005 15.722 7.028 15.727 15.708v.02z" style="fill:#fff" transform="matrix(.8675 0 0 .86742 -127.88 -6.566)"/><path d="M31.971 8.433c3.024 3.024 4.536 6.726 4.536 11.105 0 4.38-1.486 8.043-4.458 10.988-3.153 3.102-6.88 4.653-11.181 4.653-4.249 0-7.912-1.538-10.987-4.614-3.076-3.075-4.614-6.751-4.614-11.027 0-4.275 1.538-7.977 4.614-11.105 2.997-3.024 6.66-4.536 10.987-4.536 4.38 0 8.08 1.512 11.103 4.536zm-20.054 2.034c-2.557 2.582-3.834 5.606-3.834 9.075 0 3.468 1.265 6.467 3.794 8.996 2.53 2.53 5.542 3.794 9.037 3.794 3.495 0 6.532-1.277 9.114-3.833 2.452-2.373 3.678-5.358 3.678-8.957 0-3.572-1.246-6.604-3.737-9.094-2.49-2.49-5.508-3.736-9.055-3.736-3.547 0-6.546 1.252-8.997 3.755zm6.727 7.55c-.391-.853-.976-1.278-1.756-1.278-1.378 0-2.067.928-2.067 2.783 0 1.856.689 2.784 2.067 2.784.91 0 1.561-.452 1.951-1.357l1.911 1.017c-.91 1.618-2.277 2.428-4.1 2.428-1.405 0-2.53-.431-3.376-1.293-.846-.861-1.269-2.05-1.269-3.563 0-1.488.436-2.669 1.308-3.543.872-.875 1.958-1.312 3.26-1.312 1.926 0 3.305.758 4.139 2.274l-2.068 1.06zm8.99 0c-.391-.853-.965-1.278-1.72-1.278-1.406 0-2.11.928-2.11 2.783 0 1.856.704 2.784 2.11 2.784.912 0 1.55-.452 1.915-1.357l1.953 1.017c-.909 1.618-2.274 2.428-4.092 2.428-1.404 0-2.527-.431-3.372-1.293-.843-.861-1.266-2.05-1.266-3.563 0-1.488.43-2.669 1.287-3.543.857-.875 1.947-1.312 3.273-1.312 1.923 0 3.3.758 4.13 2.274l-2.108 1.06z"/><path d="M117.753 0H2.247A2.25 2.25 0 0 0 0 2.246v39.247c0 .28.228.507.508.507h118.984c.28 0 .508-.227.508-.507V2.246A2.249 2.249 0 0 0 117.753 0zM2.247 1.014h115.506c.68 0 1.232.553 1.232 1.232v27.209H36.428c-3.026 5.47-8.856 9.185-15.546 9.185-6.694 0-12.522-3.711-15.547-9.185h-4.32V2.246c0-.68.553-1.232 1.232-1.232z"/><path d="M239.178 182.777c.318 0 .608.029.87.084.261.056.486.148.673.276.187.127.332.297.435.508.102.211.154.472.154.784 0 .336-.076.615-.23.839-.152.224-.378.407-.677.55.412.119.72.326.923.621.203.296.304.653.304 1.07 0 .336-.065.627-.196.873-.13.245-.308.446-.528.601a2.327 2.327 0 0 1-.758.346 3.402 3.402 0 0 1-.875.112h-3.236v-6.664h3.141zm-.187 2.696c.261 0 .477-.063.645-.187.168-.124.252-.325.252-.604a.773.773 0 0 0-.084-.382.63.63 0 0 0-.224-.234.944.944 0 0 0-.323-.116 2.17 2.17 0 0 0-.378-.032h-1.374v1.555h1.486zm.086 2.828c.143 0 .28-.014.411-.042a1.04 1.04 0 0 0 .346-.14.709.709 0 0 0 .239-.266.907.907 0 0 0 .089-.43c0-.341-.097-.585-.29-.732-.194-.145-.45-.218-.767-.218h-1.6v1.828h1.572zM241.89 182.777h1.643l1.56 2.632 1.551-2.632h1.634l-2.474 4.107v2.557h-1.469v-2.594l-2.446-4.07zM265.78 182.777l2.785 4.471h.016v-4.47h1.375v6.663h-1.466l-2.774-4.462h-.018v4.462h-1.375v-6.664h1.458zM275.519 184.553a1.502 1.502 0 0 0-.77-.616 1.514 1.514 0 0 0-.518-.09c-.33 0-.61.064-.84.192a1.57 1.57 0 0 0-.56.513 2.247 2.247 0 0 0-.314.732 3.636 3.636 0 0 0 0 1.665c.066.265.17.503.314.714.142.212.329.38.56.509.23.128.51.191.84.191.447 0 .798-.136 1.05-.41.252-.274.406-.636.462-1.084h1.419a3.391 3.391 0 0 1-.29 1.13 2.612 2.612 0 0 1-1.513 1.403 3.268 3.268 0 0 1-1.128.188c-.51 0-.97-.089-1.378-.267a2.958 2.958 0 0 1-1.032-.732 3.237 3.237 0 0 1-.646-1.098 4.03 4.03 0 0 1-.224-1.36c0-.497.075-.96.224-1.386.15-.427.365-.799.646-1.116.28-.318.625-.567 1.032-.747.408-.18.867-.27 1.378-.27.367 0 .714.052 1.041.158.326.106.62.26.877.463.259.202.472.453.64.752.168.3.273.642.317 1.028h-1.419a1.19 1.19 0 0 0-.168-.462z" style="fill:#fff" transform="matrix(.99378 0 0 .9937 -177.694 -148.877)"/><path d="M-154.145-1.094a8.74 8.74 0 1 1-17.479.012v-.012a8.74 8.74 0 1 1 17.479 0z" style="fill:#fff" transform="matrix(1.13969 0 0 1.13959 277.395 16.228)"/><path d="M91.743 3.385c3.25 0 5.999 1.121 8.244 3.362 2.244 2.242 3.367 4.987 3.367 8.234 0 3.246-1.103 5.961-3.31 8.146-2.341 2.3-5.108 3.448-8.3 3.448-3.156 0-5.874-1.14-8.158-3.42-2.283-2.28-3.425-5.005-3.425-8.174 0-3.17 1.142-5.915 3.425-8.234 2.226-2.241 4.945-3.362 8.157-3.362zm-8.973 8.48a9.29 9.29 0 0 0-.518 3.116c0 2.57.937 4.791 2.814 6.667 1.877 1.874 4.112 2.811 6.706 2.811 2.593 0 4.847-.946 6.763-2.84a8.919 8.919 0 0 0 1.585-2.029l-4.373-1.946c-.296 1.47-1.606 2.464-3.19 2.58v1.788h-1.332v-1.788c-1.301-.014-2.56-.547-3.52-1.388l1.596-1.61c.77.724 1.54 1.049 2.59 1.049.68 0 1.434-.267 1.434-1.153a.866.866 0 0 0-.313-.696l-1.106-.493-1.377-.613c-.68-.304-1.257-.56-1.836-.817l-5.923-2.638zm9.002-6.393c-2.632 0-4.857.927-6.676 2.783-.496.5-.926 1.022-1.292 1.566l4.434 1.974c.4-1.23 1.568-1.976 2.987-2.058V7.949h1.331v1.788c.918.044 1.923.295 2.914 1.063l-1.524 1.566c-.562-.399-1.271-.68-1.982-.68-.576 0-1.39.177-1.39.9 0 .112.037.209.105.295l1.482.66 1.004.447c.641.287 1.255.559 1.862.83l5.942 2.644a10.08 10.08 0 0 0 .295-2.481c0-2.65-.93-4.89-2.787-6.726-1.839-1.856-4.074-2.783-6.705-2.783z"/><g transform="matrix(.99378 0 0 .9937 -177.694 -148.877)"><circle cx="242.562" cy="165.136" r="10.806" style="fill:#fff"/><path d="M245.69 162.01a.754.754 0 0 0-.754-.755h-4.772a.754.754 0 0 0-.754.754v4.773h1.33v5.652h3.618v-5.652h1.332v-4.773z"/><circle cx="242.55" cy="158.995" r="1.632"/><path d="M242.535 153.23c-3.232 0-5.969 1.127-8.208 3.383-2.298 2.334-3.446 5.096-3.446 8.285s1.148 5.932 3.446 8.227c2.298 2.294 5.034 3.441 8.208 3.441 3.213 0 5.998-1.156 8.353-3.47 2.22-2.198 3.33-4.93 3.33-8.198 0-3.268-1.129-6.029-3.387-8.285-2.26-2.256-5.025-3.384-8.296-3.384zm.029 2.1c2.648 0 4.897.933 6.747 2.8 1.87 1.848 2.805 4.103 2.805 6.768 0 2.684-.915 4.91-2.746 6.68-1.928 1.906-4.197 2.859-6.806 2.859-2.61 0-4.858-.943-6.747-2.83-1.89-1.886-2.833-4.123-2.833-6.709 0-2.587.954-4.843 2.862-6.768 1.83-1.867 4.07-2.8 6.718-2.8z" clip-rule="evenodd" style="fill-rule:evenodd"/></g></svg>
